X:1
T:Nocturne Op.9.No.2
T:Nocturne
T:F.Chopin, Op.9. No.2.
C:F.Chopin
%%score { ( 1 3 ) | ( 2 4 ) }
L:1/8
Q:1/8=90
M:12/8
K:Eb
V:1 treble nm="Piano" snm="Pno."
V:3 treble 
V:2 bass 
V:4 bass 
V:1
!p!"^Andante." (B | %1
[Q:1/8=116] g3-[Q:1/8=116] g[Q:1/8=114]f[Q:1/8=112]g[Q:1/8=116] f3[Q:1/8=114] e2)[Q:1/8=110]!<(! (B[Q:1/8=114][Q:1/8=112][Q:1/8=114][Q:1/8=112][Q:1/8=112] | %2
[Q:1/8=114] g2[Q:1/8=90]"^""^" !invertedturn!c[Q:1/8=96]!<)![Q:1/8=116]!mp! c'2[Q:1/8=112] g[Q:1/8=114]!>(! b3[Q:1/8=110][Q:1/8=112] a2)!>)![Q:1/8=108]!p! (g[Q:1/8=112][Q:1/8=114][Q:1/8=112][Q:1/8=110] | %3
[Q:1/8=116]!p! f3[Q:1/8=114] g2[Q:1/8=110] d[Q:1/8=112] e3[Q:1/8=112] c3)[Q:1/8=114][Q:1/8=112][Q:1/8=112][Q:1/8=110][Q:1/8=108][Q:1/8=110][Q:1/8=108] | %4
[Q:1/8=112]"_cresc." (B[Q:1/8=108]d')[Q:1/8=104](c'[Q:1/8=114] b/a/[Q:1/8=104]g/!f!a/)[Q:1/8=96]!>(!(c/d/!>)![Q:1/8=116]!mp! e3)[Q:1/8=110] z2!p![Q:1/8=98] (B[Q:1/8=114][Q:1/8=112][Q:1/8=108] | %5
[Q:1/8=116] g3[Q:1/8=114] f/g/[Q:1/8=112]Pf/=e/[Q:1/8=110]f/g/[Q:1/8=114] f)[Q:1/8=112] !>!_e2-[Q:1/8=114] e/(f/[Q:1/8=112]Pe/d/[Q:1/8=110]e/f/[Q:1/8=114][Q:1/8=112][Q:1/8=110] | %6
!<(! g/)[Q:1/8=116](=B/c/)[Q:1/8=114](!>!_d/c/)[Q:1/8=112](!>!f/"_cresc." =e/)[Q:1/8=110](!>!a/g/)[Q:1/8=104](!>!_d'/c'/[Q:1/8=90]g/)!<)![Q:1/8=112]!mf!!>(! (_b3!>)![Q:1/8=110] a2)[Q:1/8=100] (g[Q:1/8=110][Q:1/8=108][Q:1/8=105] | %7
[Q:1/8=100]!p! !trill(!Tf3[Q:1/8=116][Q:1/8=100]{=ef}[Q:1/8=112] .g)[Q:1/8=116](gd)[Q:1/8=114] (_e3[Q:1/8=112] c3)[Q:1/8=112][Q:1/8=110][Q:1/8=108][Q:1/8=104] | %8
[Q:1/8=112]"_cresc." (B[Q:1/8=104]d')[Q:1/8=100](.c'[Q:1/8=116] .b/.a/[Q:1/8=108].g/.a/[Q:1/8=92]{/a}c/d/[Q:1/8=116]!mf! e3-)[Q:1/8=110]!>(! e[Q:1/8=112](d[Q:1/8=108]e!>)![Q:1/8=114][Q:1/8=112] | %9
!p![Q:1/8=116] f3[Q:1/8=114] !>!g2[Q:1/8=110] f)!pp![Q:1/8=112] (f3[Q:1/8=112] c3)[Q:1/8=114][Q:1/8=112][Q:1/8=112][Q:1/8=110][Q:1/8=108][Q:1/8=110][Q:1/8=108] | %10
[Q:1/8=114] (.e[Q:1/8=112].e[Q:1/8=110].e)[Q:1/8=113] (e[Q:1/8=111]d/e/[Q:1/8=109]f/>e/)[Q:1/8=112] (e3[Q:1/8=110] B3)[Q:1/8=110][Q:1/8=108][Q:1/8=108][Q:1/8=104] | %11
"^a tempo"!f![Q:1/8=116] (b3[Q:1/8=114] =a2[Q:1/8=108] g[Q:1/8=114]!mf!!>(! [=Af]3[Q:1/8=112] [Bd]3!>)![Q:1/8=114][Q:1/8=112][Q:1/8=112][Q:1/8=112][Q:1/8=110][Q:1/8=110][Q:1/8=108] | %12
!mp![Q:1/8=114] [Ge]3)[Q:1/8=112]!mp! (.[=Ad][Q:1/8=110].[Ac][Q:1/8=108].[Ad][Q:1/8=96]!<(! .[FB])[Q:1/8=112](.[^F=B][Q:1/8=110].[=EB][Q:1/8=108] .[E_Bc][Q:1/8=104].[=FAc][Q:1/8=72].[_Ad])[Q:1/8=68]!<)![Q:1/8=112][Q:1/8=110] | %13
[Q:1/8=116]"^a tempo"{GBe} g2!p![Q:1/8=112] (=A/B/[Q:1/8=114] !>!_c/B/[Q:1/8=110]^c/d/[Q:1/8=108]!>!g/>f/)[Q:1/8=114] (f2[Q:1/8=110] e-)[Q:1/8=114] e/(f/[Q:1/8=112]Pe/d/[Q:1/8=110]e/f/[Q:1/8=114][Q:1/8=112] | %14
!<(! g/)[Q:1/8=116](=B/c/)[Q:1/8=114](!>!_d/c/)[Q:1/8=112](!>!f/"_cresc." =e/)[Q:1/8=108](!>!a/g/)[Q:1/8=104](!>!_d'/[Q:1/8=102]c'/[Q:1/8=90]g/)!<)!!mf![Q:1/8=112]!>(! (_b3[Q:1/8=110] a2)!>)![Q:1/8=100] (g[Q:1/8=110][Q:1/8=108][Q:1/8=105] | %15
!p![Q:1/8=96] !trill(!Tf3[Q:1/8=116][Q:1/8=100]{=ef}[Q:1/8=112] .g)[Q:1/8=116](!>!gd)[Q:1/8=114]!<(! (_e3!<)![Q:1/8=112] c3)[Q:1/8=112][Q:1/8=110][Q:1/8=110][Q:1/8=108] | %16
[Q:1/8=112]!mp!!<(! (B[Q:1/8=108]d')[Q:1/8=104](.^c'[Q:1/8=100] .=c'/4.=b/4[Q:1/8=116]._b/4.=a/4._a/4.f/4.d/4)(!>!_c/4[Q:1/8=100](5:4:5B/4d/4[Q:1/8=88]g/4f/4!<)![Q:1/8=80]e/4)[Q:1/8=116]!mf! e3-[Q:1/8=114]!>(! e[Q:1/8=109](d[Q:1/8=104]e!>)![Q:1/8=114][Q:1/8=112] | %17
!p![Q:1/8=116] f3[Q:1/8=114] !>!g2[Q:1/8=110] f)[Q:1/8=114] (f3[Q:1/8=112] c3)[Q:1/8=114][Q:1/8=112][Q:1/8=112][Q:1/8=112][Q:1/8=110][Q:1/8=110][Q:1/8=108] | %18
[Q:1/8=114]!p! (4:3:4(.e.e.e.e)[Q:1/8=112] (e[Q:1/8=110]d/e/[Q:1/8=100]f/>e/)[Q:1/8=114] (e3[Q:1/8=112] B3)[Q:1/8=112][Q:1/8=110][Q:1/8=112][Q:1/8=110][Q:1/8=110][Q:1/8=108] | %19
!f![Q:1/8=116] (b3[Q:1/8=114] =a2[Q:1/8=104] g[Q:1/8=114]!mf!!>(! [=Af]3[Q:1/8=112] [Bd]3!>)![Q:1/8=114][Q:1/8=112][Q:1/8=108][Q:1/8=112][Q:1/8=110][Q:1/8=110][Q:1/8=108] | %20
!mp![Q:1/8=114] [Ge]3)[Q:1/8=110] (.[=Ad][Q:1/8=108].[Ac][Q:1/8=100].[Ad][Q:1/8=96] .[FB])[Q:1/8=112]!<(!(.[^F=B][Q:1/8=110].[=EB][Q:1/8=104] .[E_Bc][Q:1/8=96].[=FAc][Q:1/8=72].[_Ad])!<)![Q:1/8=68][Q:1/8=113][Q:1/8=112] | %21
"^a tempo"[Q:1/8=116]{GBe} g2!p![Q:1/8=112] (=A/B/[Q:1/8=114] !>!_c/B/[Q:1/8=112]^c/d/[Q:1/8=108]!>!g/>f/)[Q:1/8=114]!>(! (f2!>)![Q:1/8=110] e-)[Q:1/8=113]!pp! e/!<(!(f/[Q:1/8=112]Pe/d/[Q:1/8=111]e/!<)!f/[Q:1/8=114][Q:1/8=112] | %22
[Q:1/8=116]!p! g/)(=B/c/)[Q:1/8=114](!>!_d/!<(!c/)[Q:1/8=112](!>!f/ =e/)[Q:1/8=108](!>!a/g/)[Q:1/8=100](!>!_d'/[Q:1/8=90]c'/!<)![Q:1/8=100]g/)[Q:1/8=96]!mf![Q:1/8=114]!>(!{/g} (_b3[Q:1/8=112] a2)!>)![Q:1/8=108] (g[Q:1/8=112][Q:1/8=110][Q:1/8=110] | %23
!p![Q:1/8=90] !trill(!Tf3[Q:1/8=116][Q:1/8=114][Q:1/8=112][Q:1/8=110]{=ef}[Q:1/8=116] .g)[Q:1/8=114](g[Q:1/8=112]d)[Q:1/8=114]!<(! (_e3[Q:1/8=112] c3[Q:1/8=112][Q:1/8=110][Q:1/8=110][Q:1/8=108] | %24
[Q:1/8=96] .B/)!<)![Q:1/8=114]!mp!(d'[Q:1/8=100].^c'/.=c'/>.=b/[Q:1/8=108] ._b/.=a/)[Q:1/8=104] (5:4:5!wedge!_a/4(=A/4B/4=B/4c/4[Q:1/8=88](5:4:5^c/4d/4[Q:1/8=72]g/4f/4e/4[Q:1/8=114] !>!e6)[Q:1/8=112][Q:1/8=110][Q:1/8=112][Q:1/8=110][Q:1/8=108] | %25
!p![Q:1/8=116] (e3[Q:1/8=114] f[Q:1/8=112]e[Q:1/8=110]f[Q:1/8=116] g6)[Q:1/8=114][Q:1/8=112][Q:1/8=114][Q:1/8=112][Q:1/8=114][Q:1/8=112][Q:1/8=110] | %26
!pp![Q:1/8=116] e3-[Q:1/8=110] (e/f/[Q:1/8=108]e/)(f/[Q:1/8=106]e/f/"_poco rubato"[Q:1/8=116] g2)[Q:1/8=114] (!invertedturn!e[Q:1/8=110] (.e')[Q:1/8=108].d'[Q:1/8=106].c')[Q:1/8=114][Q:1/8=112][Q:1/8=112] | %27
[Q:1/8=114]!pp! (b2[Q:1/8=110] (=a[Q:1/8=112] _a)[Q:1/8=110]c[Q:1/8=108]d)[Q:1/8=112] e[Q:1/8=110](f/Pe/[Q:1/8=108]d/e/)[Q:1/8=80][Q:1/8=112]{/e} g'[Q:1/8=110](.f'/.e'/[Q:1/8=108].d'/.c'/[Q:1/8=112] | %28
[Q:1/8=114] _c'[Q:1/8=112]b[Q:1/8=110]__b)[Q:1/8=108] (b/a/)[Q:1/8=106] (a/g/)[Q:1/8=102] (g/>[Q:1/8=80]f/[Q:1/8=114] !>!e6)[Q:1/8=112][Q:1/8=110][Q:1/8=112][Q:1/8=110][Q:1/8=108] | %29
[Q:1/8=104]!p! e3-[Q:1/8=114] (8:6:8e/(f/[Q:1/8=112]e/f/[Q:1/8=108]e/)(f/[Q:1/8=104]!<(!e/f/!<)![Q:1/8=114]!p! g3)[Q:1/8=112] z2[Q:1/8=108] z[Q:1/8=116][Q:1/8=112][Q:1/8=110][Q:1/8=110] | %30
!f! !wedge!e[Q:1/8=116]!<(!(A/B/TA/G/[Q:1/8=114] A/_c/[Q:1/8=112]e/a/[Q:1/8=96]e'/)z/4(f'/4!<)![Q:1/8=112]!f! g'e')!8va(! !>![e'e'']2[Q:1/8=110] [d'd''][Q:1/8=108][c'=c''] | %31
[Q:1/8=110] [_c'_c''][Q:1/8=108][bb'][Q:1/8=106][__b__b'][Q:1/8=108] [_aa'][gg'][Q:1/8=104][dd'][Q:1/8=100] [ee'][Q:1/8=112] !>![e'e'']3[Q:1/8=94] [ff'][Q:1/8=90][=c'=c''][Q:1/8=98] | %32
!ff![Q:1/8=114]!>(! ([_c'_c'']6!>)![Q:1/8=80] !fermata![bb']6)[Q:1/4=80][Q:1/4=90][Q:1/4=100][Q:1/4=110][Q:1/4=120] _c''/b'/=c''/=a'/[Q:1/4=130]!<(! _c''/b'/=c''/a'/[Q:1/4=140] _c''/b'/=c''/a'/[Q:1/4=160]"_cresc." _c''/b'/=c''/a'/[Q:1/4=180] _c''/b'/=c''/a'/ _c''/b'/=c''/a'/!<)![Q:1/8=112][Q:1/8=106][Q:1/8=92][Q:1/8=80] | %33
!f! _c''/b'/!>(!"_dim."=c''/=a'/ _c''/b'/=c''/a'/ _c''/b'/=c''/a'/ _c''/b'/=c''/a'/[Q:1/4=100]"_rallent. e  smorz." _c''/b'/[Q:1/4=110]=d''/=c''/[Q:1/4=100] b'/!>)!=a'/_a'/g'/!8va)![Q:1/4=90] f'/d'/[Q:1/4=80]e'/c'/[Q:1/4=60] ba[Q:1/4=46]c[Q:1/4=32]d | %34
!pp![Q:1/8=110]"^a tempo" ([Ge]Bg [Ge]Bg[Q:1/8=108] [Ge]Bg[Q:1/8=104] [Ge]B[Q:1/8=100]g | %35
!ppp![Q:1/8=90] [Ge]3) [ge']3 !fermata![G,E]6 |] %36
V:2
"^espressdolce" z | %1
!p!!ped! .E,,([G,E][B,EG])!ped-up!!ped! .E,([A,D][_CDA])!ped-up!!ped! .E,,([G,E][B,EG])!ped-up!!ped! .D,,([G,E]!<(![B,EG])!ped-up! | %2
!ped! .C,,([G,=E][B,EG])!<)!!ped-up!!mp!!ped! .C,([G,E][CEB])!ped-up!!ped!!>(! .F,,([F,_D][B,D=E])!ped-up!!ped! .F,,([F,C]!p![A,CF])!>)!!ped-up! | %3
!p!!ped! B,,([F,=D][B,DA])!ped-up!!ped! =B,,[G,F][DFG]!ped-up!!ped! C,[G,E][CEG]!ped-up!!ped! =A,,[_G,E][CE_G]!ped-up! | %4
!ped!"_cresc." B,,[F,E][B,EA]!ped-up!!ped! B,,,!mp![F,D][B,A]!ped-up!!ped!!>(! E,,[G,E][B,EG]!p! E,!>)![G,E][B,EG] | %5
 E,[G,E][B,EG]!ped-up!!ped! E,[A,D][_CDA]!ped-up!!ped! E,[G,E][B,EG]!ped-up!!ped! D,[G,E][B,EG]!ped-up! | %6
!ped!!<(! C,[G,=E][B,EG] C,[G,E]!<)![CEB]!ped-up!!mp!!ped!!>(! F,,[F,_D][B,D=E]!ped-up!!ped! F,,[F,C][A,CF]!>)!!ped-up! | %7
!p!!ped! B,,[F,=D][B,DA]!ped-up!!ped! =B,,[G,F][DFG]!ped-up!!ped! C,[G,E][CEG]!ped-up!!ped! =A,,[_G,E][CE_G]!ped-up! | %8
!<(!!ped! B,,[F,E][B,EA]!ped-up!!ped! B,,,[F,D][B,A]!<)!!ped-up!!mp!!ped! E,,[G,E][B,EG]!ped-up!!>(!!ped! E,[G,E][B,EG]!>)!!ped-up! | %9
!p!!ped! .B,,([F,D][B,DF]) .B,,([F,D][B,DF])!ped-up!!pp!!ped! .=A,,([F,C][CF]) .A,,([F,C][CF])!ped-up! | %10
"^poco ritard."!ped! ._A,,[E,C][A,CE]!ped-up!!ped! .A,,,[E,_C][A,CE]!ped-up!!ped! .E,,[G,E][B,EG]!<(! .E,[G,E]!mp![B,EG]!ped-up!!<)! | %11
!mf!!ped! =E,,[=E,_D][B,DG]!ped-up!!ped! E,,[E,C][B,CG]!ped-up!!>(!!ped! F,,[F,_E][CE=A]!ped-up!!ped! G,,[G,=D][B,DB]!>)!!ped-up! | %12
!p!!ped! C,,[G,E][CEF]!ped-up!!p!!ped! F,,[F,E][CEF]!ped-up!!ped! (.[B,D]!ped-up!"^poco rall."!ped!.[=A,^D]!ped-up!!ped!.^G,!ped-up!!ped! .=G,!ped-up!!ped!.[=F,C_E]!ped!!ped-up!.[B,F])!ped-up!!ped! | %13
!mp! E,,!p![G,E][B,EG]"_simile"!ped-up!!ped! E,[A,D][B,DA]!ped-up!!ped! E,[G,E][B,EG]!ped-up!!ped! D,[G,E][B,EG] | %14
!<(!!ped! C,[G,=E][B,EG] C,[G,E]!<)![CEB]!mp!!>(!!ped-up!!ped! F,,[F,_D][B,D=E]!ped-up!!ped! F,,[F,C][A,CF]!ped-up!!>)! | %15
!p!!ped! B,,[F,=D][B,DA]!ped-up!!ped! =B,,[G,F][DFG]!ped-up!!ped!!<(! C,[G,E][CEG]!<)!!ped-up!!ped! =A,,[_G,E][CE_G]!ped-up! | %16
!p!!<(!!ped! B,,[F,E][B,EA]!ped-up!!ped! B,,,[F,D][B,DA]!<)!!mp!!ped-up!!ped! E,,[G,E][B,EG]!>(!!ped-up!!ped! E,[G,E][B,EG]!ped-up!!>)! | %17
!p!!ped! B,,[F,D][B,DF] B,,[F,D][B,DF]!ped-up!!ped! =A,,[F,C][CF] A,,[F,C][CF]!ped-up! | %18
!p!!ped! _A,,[E,C][A,CE]!ped-up!!ped! A,,,[E,_C][A,CE]!ped-up!!ped! E,,[G,E][B,EG]!<(! E,[G,E]!mp![B,EG]!ped-up!!<)! | %19
!mf!!ped! =E,,[=E,_D][B,DG]!ped-up!!ped! E,,[E,C][B,CG]!mf!!>(!!ped-up!!ped! F,,[F,_E][CE=A]!ped-up!!ped! G,,[G,=D][B,DB]!ped-up!!>)! | %20
!p!!ped! C,,[G,E][CEF]!ped-up!!ped! F,,[F,E][CEF]!ped-up!!ped! (.[B,D]!ped-up!"^poco rall."!ped!.[=A,^D]!ped-up!!ped!.^G,!ped-up!!ped! .=G,!ped-up!!ped!.[=F,C_E]!ped!!ped-up!.[B,F])!ped-up!!ped!!ped-up! | %21
!mp! E,,!p![G,E][B,EG]!ped-up!!ped! E,[A,D][B,DA]!ped-up!!ped!!>(! E,[G,E]!>)![B,EG]!pp!!ped-up!!ped! D,!<(![G,E][B,EG]!<)! | %22
!p!!ped! C,[G,=E]!<(![B,EG] C,[G,E]!<)![CEB]!mp!!ped-up!!ped!!>(! F,,[F,_D][B,D=E]!ped-up!!ped! F,,[F,C][A,CF]!ped-up!!>)! | %23
!p!!ped! B,,[F,=D][B,DA]!ped-up!!ped! =B,,[G,F][DFG]!ped-up!!ped! C,[G,E][CEG]!ped-up!!ped! =A,,[_G,E][CE_G]!ped-up! | %24
!p!!ped!!<(! B,,[F,E][B,EA]!ped-up!!ped! B,,,[F,D][B,DA]!<)!!mp!!ped-up!!ped! E,,[G,E][B,EG]!>(!!ped-up!!ped! E,[G,E][B,EG]!ped-up!!>)! | %25
!p!!ped! .E,,([A,_CE][CEA]) .E,([A,CE][CEA])!ped-up!!ped! .E,,([G,E][B,EG]) .E,([G,E][B,EG])!ped-up! | %26
!pp!!ped! E,,[A,_CE][CEA] E,[A,CE][CEA]!ped-up!!ped! E,,[G,E][B,EG] E,[G,E][B,EG]!ped-up! | %27
!pp!!ped! E,[F,D][B,A] E,[F,D][B,A]!ped-up!!ped! E,[G,E][B,G]"^delcissimo"!ped-up!!ped! =A,,[F,E][CEF]!ped-up! | %28
!ped! B,,[F,E][B,EA]!ped-up!!ped! B,,,[F,D][B,DA]!ped-up!!ped! E,,[G,E][B,EG] E,[G,E][B,EG]!ped-up! | %29
!p!!ped! A,,,[E,A,_C][A,CE] [CEA][A,CE][E,A,C]!p!!ped-up!!ped! E,,[G,E][B,EG]!<(! E,[G,E]!mp![B,EG]!ped-up!!<)! | %30
"^con forza"!f!!ped!!<(! A,,,[E,A,_C][A,CE] [E,A,C][A,CE][E,A,C]!<)!!f!!ped-up!!ped! E,,[G,E][B,EG]!ped-up!!ped! =A,,"^stretto"[F,E][=CEF]!ped-up! | %31
!ped! B,,[F,B,E][B,EA]!ped-up!!ped! =B,,[G,F][DFG]!ped-up!!ped! C,[G,E][CG]!ped-up!!ped! =A,, [CE][CEF]!ped-up! | %32
!ped!!mf!!>(! (4:3:4(B,,,B,,F,_A, (4:3:4DB,[K:treble]FA!>)!!p! !fermata!d6)!ped-up! x4 x8 | %33
 x16 x2 |[K:bass]!ped! x B,2 x B,2 x B,2 x B,2- | x3!ped-up! %35
 [E,B,]3[K:treble] [EB]3[K:bass] !fermata![E,,B,,]6 |] %36
V:3
 x | x12 | x2 (5:4:5x/4x/4x/4x/4x/4 x2 x x2 x x2 x | x12 | x12 | x12 | x12 | %7
 x/4x/4(3x/4x/4x/4(3x/4x/4x/4(3x/4x/4x/4(3x/4x/4x/4(3!trill)!x/4x/4x/4 x3 x3 x3 | %8
 x3 x x/ (3:2:2x/ x/4 x/ x/ x3 x3 | x12 | x12 | x12 | x3 x3 x3 x2 x/ (3x/4x/4x/4 | x2 x x3 x6 | %14
 x12 | x/4x/4(3x/4x/4x/4(3x/4x/4x/4(3x/4x/4x/4(3x/4x/4x/4(3!trill)!x/4x/4x/4 x3 x3 x3 | x12 | x12 | %18
 x12 | x12 | x3 x3 x3 x2 x/ (3x/4x/4x/4 | x2 x x3 x6 | x3 x2 x/ x/4 x/4 x3 x3 | %23
 x/4x/4(3x/4x/4x/4(3x/4x/4x/4(3x/4x/4x/4(3x/4x/4x/4(3!trill)!x/4x/4x/4 x3 x3 x3 | x12 | x12 | %26
 x6 x2 (5:4:5x/4x/4x/4x/4x/4 x3 | x6 x2 x/ (3:2:2x/ x/4 .x x2 | x12 | x12 | x8!8va(! x4 | x12 | %32
 x6 !fermata!x2!p! _c''/b'/=c''/=a'/ _c''/b'/=c''/a'/ x4 x4 x4 | x4 x8!8va)! x6 | x12 | x12 |] %36
V:4
 x | x12 | x12 | x12 | x12 | x12 | x12 | x12 | x12 | x12 | x12 | x12 | x12 | x12 | x12 | x12 | %16
 x12 | x12 | x12 | x12 | x12 | x12 | x12 | x12 | x12 | x12 | x12 | x12 | x12 | x12 | x12 | %31
 x6 x3 x F,2 | x9/2[K:treble] x39/2 | x18 |[K:bass] E,,B,B,, E,B,B,, E,,B,B,, E,B,B,, | %35
 x3[K:treble] x3[K:bass] x6 |] %36

